X: 2
T: The Green Fields Of America
R: reel
M: 4/4
L: 1/8
K: Gmaj
cec BdB|AGA BGE|DEG AGA|BdB AGE|cec BdB|AGA BGE|DEG AGA|1 BGF G2z:|2 BGF G2D||GBd gfg|ede gdB|GBd gdB|AGA BGE|GBd gfg|ede gdB|GAB AGA|1 BGF G2D:|2 BGF G2z||


Tune 695	Setting 22331

